images/logo-head.svg

<svg xmlns="http://www.w3.org/2000/svg" width="252" height="110.8" viewBox="0 0 252 110.8"><path fill="#fff" d="M251.3 78.7l-16 16c-8.9 8.9-23.3 8.9-32.1 0l-30.5-30.5-14.5 14.6-16.4 16.4-15.8 15.6-32.1-32.1-14.5-14.6-30.6 30.6c-8.9 8.9-23.3 8.9-32.1 0l-16-16 46.6-46.6 32.1-32.1 46.6 46.6 14.5-14.6 32.1-32 32 32.1 46.7 46.6z"/></svg>

<?xml version="1.0" encoding="utf-8"?>
<!-- Generator: Adobe Illustrator 18.1.1, SVG Export Plug-In . SVG Version: 6.00 Build 0)  -->
<!DOCTYPE svg PUBLIC "-//W3C//DTD SVG 1.1//EN" "http://www.w3.org/Graphics/SVG/1.1/DTD/svg11.dtd">
<svg version="1.1" id="Layer_1" xmlns="http://www.w3.org/2000/svg" xmlns:xlink="http://www.w3.org/1999/xlink" x="0px" y="0px"
	 width="252px" height="110.8px" viewBox="0 0 252 110.8" enable-background="new 0 0 252 110.8" xml:space="preserve">
<g>
	<g>
		<path fill="#FFFFFF" d="M251.3,78.7l-16,16c-8.9,8.9-23.3,8.9-32.1,0l-30.5-30.5l-14.5,14.6l-16.4,16.4L126,110.8L93.9,78.7l0,0
			L79.4,64.1L48.8,94.7c-8.9,8.9-23.3,8.9-32.1,0l-16-16l46.6-46.6L79.4,0L126,46.6l14.5-14.6L172.6,0l32,32.1L251.3,78.7z"/>
	</g>
</g>
</svg>
